X: 17047
T: Heather Breeze, The
R: reel
M: 4/4
K: Gmajor
|D~G3 dGBG|D~F3 cFAF|D~G3 dGBG|BdcB (3ABA (3GFE|
D~G3 dGBG|D~F3 cFAF|GABc dGBG|BdcA BGBd|
g2gf gbag|(3fgf de fgaf|dggf gbag|fdcA (3BAG Bc|
Gd (3Bcd gbag|fd (3ABd fgaf|gbag fagf|edcB (3ABA (3GFE|

